X: 72
T:Teddy Bears' Picnic, The
C:John W. Bratton (c.1907)
M:6/8
L:1/8
K:Am
P:A
"Am"A2c "E7"BcB | "Am"A2c "E7"B2c | "Am"ABc "E7"B2c | "Am"A3- "G7"A2G \
"C"c2e "G7"ded | "C"c2e "G7"d2e | "C"cde "G7"d2e | "C"c3- c2g |
"Dm"a2g a2g | "G7"deg e2d | "C"d2c d2c | "Am"GAc A2G |\
"F"A2c "C"G2G | "F"ABc"C"G2e | "G7"d6 | "C"c6 ||
P:B
K:G
"G"D3 B3|^A3 B3|e2B d3-|d2B ^A2B|e2B d2B|edB "C#?^A2B|"D7"d2A c3-|c6|
"D7"D3 c3|B3 c3|f2c e3-|e2e ^d2e|f3 e3|d3 c3|"G"B2d d3-|d3- "D7"d3|
"G"D3 B3|^A3 B3|e2B d3-|d2B ^A2B|e2B d2B|edB "G7"A2G|"C"g6-|g3 e2f|
"C"g2f g2f|"C#?gfg age|"G"d2^c d2e|"Em"d2G A2B|"Am"c3 d2e|"D7"B3A3|"G"G6-|G2e geg||
P:C
K:C
"Dm7"a2g a3-|"G7"age geg|"C"d2B d3-|"C"dGA BcA|"Dm7"B3 A3|"G7"G3 e3|"C"d2d egb|a2e geg|
"Dm7"a2g a3-|"G7"age geg|"C"d2B d3-|dGA BdB|"Am"c3-cAB|"C?c3-cAB|"F7"cBA ^d2d|"E7"e3-e3||

